X:1
T:Title
%%score { ( 1 3 ) | 2 }
L:1/8
Q:1/4=100
M:6/8
K:Ab
V:1 treble nm="Grand Piano"
V:3 treble 
V:2 bass 
V:1
 [CE][CE][CE] [_C=D][=CE][_DF] | [CE]3 [CEA]3 | GFG AGA | [=DB]3 .[_DE]3 | %4
w: William~J.~Kirkpatrick * * * * *||||
 [CE][CE][CE] [_C=D][=CE][_DF] | [CE]3 [CA]3 | GGA ccB | [CA]6 | .[Ec]6 | [CA]3 [CE]3 | .[Gd]6 | %11
w: |||||||
 B3 E3 | .e6 | .d6 | .A2 A GAB | [CEA]6 |] %16
w: |||||
V:2
 [A,,A,][A,,A,][A,,A,] [A,,A,][A,,A,][A,,A,] | [A,,A,]3 A,,3 | %2
 [E,B,D][E,A,D][E,B,D] [F,A,C][F,B,C][F,A,C] | [B,,A,]3 .[E,G,]3 | %4
 [A,,A,][A,,A,][A,,A,] [A,,A,][A,,A,][A,,A,] | [A,,A,]3 [A,,A,]3 | %6
 [E,B,E][E,B,E][E,CE] [E,A,E][E,A,E][E,G,D] | [A,,A,]6 | [A,,A,]A,,A,, A,,[A,,A,][A,,A,] | %9
 [A,,E,]3 [A,,A,]3 | [E,B,]E,E, E,[E,=A,][E,B,] | [E,G,E]3 [E,G,]3 | %12
 [C,A,][C,A,][C,A,] [C,A,] .[C,A,]2 | [D,A,][D,A,][D,A,] [D,A,][D,A,][D,B,] | %14
 .[E,CE]2 [E,CE] [E,B,E][E,CE][E,DE] | [A,,A,]6 |] %16
V:3
 x6 | x6 | x6 | x6 | x6 | x6 | x6 | x6 | z A,A, A,[=D_c][E=c] | x6 | z B,B, B,[Gc][Gd] | x6 | %12
 EEE E[Ec]A | FFF F[Fc][FB] | x6 | x6 |] %16

